X: 35684
T: Sailor's, The
R: polka
M: 2/4
K: Gmajor
|:Bd BA|GB DG|FG ED|BA GA|
Bd BA|GB DG|F2 EF|G2 G2:|
|:dB GB|cA EB|BA FD|FA d2|
dB GB|cA EB|BA FD|G2 G2:|

